**kern	**kern
*staff2	*staff1
*clefF4	*clefG2
*M3/4	*M3/4
*k[b-]	*k[b-]
*F:	*F
=141||	=141||
*M3/4	*M3/4
24FLL	24cccLL
24A	24aa
24cJ	24ffJ
24fL	24ccL
24c	24ff
24AJJ	24aaJJ
24FLL	24cccLL
24A	24aa
24cJ	24ffJ
24fL	24ccL
24c	24ff
24AJJ	24aaJJ
24FLL	24cccLL
24A	24aa
24cJ	24ffJ
24FL	24dddL
24B-	24bb-
24dJJ	24ffJJ
=142	=142
24FLL	24cccLL
24A	24aa
24cJ	24ffJ
24fL	24ccL
24c	24ff
24AJJ	24aaJJ
24FLL	24cccLL
24A	24aa
24cJ	24ffJ
24FL	24bb-L
24G	24gg
24B-JJ	24eeJJ
24FLL	24aaLL
24A	24ff
24cJ	24ccJ
24FL	24aaL
24A	24ff
24cJJ	24ccJJ
=143	=143
24FLL	24aaLL
24A	24ff
24cJ	24ccJ
24fL	24aL
24c	24cc
24AJJ	24ffJJ
24FLL	24aaLL
24A	24ff
24cJ	24ccJ
24fL	24aL
24c	24cc
24AJJ	24ffJJ
24FLL	24aaLL
24A	24ff
24cJ	24ccJ
24FL	24bb-L
24B-	24ff
24dJJ	24ddJJ
=144	=144
24FLL	24aaLL
24A	24ff
24cJ	24ccJ
24fL	24aL
24c	24cc
24AJJ	24ffJJ
24FLL	24aaLL
24A	24ff
24cJ	24ccJ
24FL	24ggL
24G	24ee
24B-JJ	24b-JJ
24FLL	24ffLL
24A	24cc
24cJ	24aJ
24FL	24ffL
24A	24cc
24cJJ	24aJJ
=145	=145
24CLL	24ggLL
24E	24ee
24GJ	24ccJ
24cL	24gL
24G	24cc
24EJJ	24eeJJ
24CLL	24ggLL
24E	24ee
24GJ	24ccJ
24cL	24gL
24G	24cc
24EJJ	24eeJJ
24CLL	24ggLL
24E	24ee
24GJ	24ccJ
24CL	24gg#L
24E	24ee
24G#JJ	24ccJJ
=146	=146
24CLL	24aaLL
24F	24ff
24AJ	24ccJ
24cL	24aL
24A	24cc
24FJJ	24ffJJ
24CLL	24aaLL
24F	24ff
24AJ	24ccJ
24CL	24gg#L
24E	24ee
24G#JJ	24ccJJ
24CLL	24aaLL
24F	24ff
24AJ	24ccJ
24CL	24gg#L
24E	24ee
24G#JJ	24ccJJ
=147	=147
24CLL	24aaLL
24F	24ff
24AJ	24ccJ
24cL	24aL
24A	24cc
24FJJ	24ffJJ
24CLL	24aaLL
24F	24ff
24AJ	24ccJ
24cL	24aL
24A	24cc
24FJJ	24ffJJ
24CLL	24aaLL
24F	24ff
24AJ	24ccJ
24CL	24aaL
24F#	24ff#
24AJJ	24ccJJ
=148	=148
24CLL	24bb-LL
24G	24gg
24B-J	24eeJ
24cL	24ccL
24B-	24ee
24GJJ	24ggJJ
24CLL	24bb-LL
24G	24gg
24B-J	24ccJ
24CL	24aaL
24F#	24ff#
24AJJ	24ccJJ
24CLL	24bb-LL
24G	24gg
24B-J	24ccJ
24CL	24ggL
24E	24ee
24GJJ	24ccJJ
=149	=149
24FLL	24aaLL
24A	24ff
24cJ	24ccJ
24CL	24cccL
24F	24ff
24AJJ	24ccJJ
24AALL	24ffLL
24C	24cc
24FJ	24aJ
24AAL	24ff#L
24C	24cc
24F#JJ	24aJJ
24CLL	24ggLL
24E	24ee
24GJ	24ccJ
24CL	24gg#L
24E	24ee
24G#JJ	24ccJJ
=150	=150
24FLL	24aaLL
24A	24ff
24cJ	24ccJ
24CL	24cccL
24F	24ff
24AJJ	24ccJJ
24AALL	24ffLL
24C	24cc
24FJ	24aJ
24AAL	24ff#L
24C	24cc
24F#JJ	24aJJ
24CLL	24ggLL
24E	24ee
24GJ	24ccJ
24CL	24gg#L
24E	24ee
24G#JJ	24ccJJ
=151	=151
24FLL	24aaLL
24A	24ff
24cJ	24ccJ
24AAL	24ffL
24C	24cc
24FJJ	24aJJ
24BB-LL	24ddLL
24D	24b-
24GJ	24gJ
24GGL	24b-L
24BB-	24g
24DJJ	24eJJ
24CLL	24gLL
24E	24e
24GJ	24B-J
24CCL	24eL
24GG	24B-
24CJJ	24GJJ
=152	=152
24FFLL	24aLL
24AA	24f
24CJ	24cJ
24CCL	24ccL
24FF	24f
24AAJJ	24cJJ
24AAALL	24fLL
24CC	24c
24FFJ	24AJ
24AAAL	24f#L
24CC	24c
24FF#JJ	24AJJ
*-	*-
